svgs/sharp-thin/file-chart-column.svg

<svg xmlns="http://www.w3.org/2000/svg" viewBox="0 0 384 512"><!--! Font Awesome Pro 6.6.0 by @fontawesome - https://fontawesome.com License - https://fontawesome.com/license (Commercial License) Copyright 2024 Fonticons, Inc. --><path d="M16 496L16 16l192 0 0 152 0 8 8 0 152 0 0 320L16 496zM224 22.6L361.4 160 224 160l0-137.4zM224 0L16 0 0 0 0 16 0 496l0 16 16 0 352 0 16 0 0-16 0-336L224 0zM168 224c-4.4 0-8 3.6-8 8l0 24 0 160 0 24c0 4.4 3.6 8 8 8l48 0c4.4 0 8-3.6 8-8l0-24 0-160 0-24c0-4.4-3.6-8-8-8l-48 0zm8 32l0-16 32 0 0 16 0 160 0 16-32 0 0-16 0-160zm88 32c-4.4 0-8 3.6-8 8l0 24 0 96 0 24c0 4.4 3.6 8 8 8l48 0c4.4 0 8-3.6 8-8l0-24 0-96 0-24c0-4.4-3.6-8-8-8l-48 0zm8 32l0-16 32 0 0 16 0 96 0 16-32 0 0-16 0-96zM72 352c-4.4 0-8 3.6-8 8l0 24 0 32 0 24c0 4.4 3.6 8 8 8l48 0c4.4 0 8-3.6 8-8l0-24 0-32 0-24c0-4.4-3.6-8-8-8l-48 0zm8 32l0-16 32 0 0 16 0 32 0 16-32 0 0-16 0-32z"/></svg>

<svg xmlns="http://www.w3.org/2000/svg" viewBox="0 0 384 512"><!--! Font Awesome Pro 6.5.2 by @fontawesome - https://fontawesome.com License - https://fontawesome.com/license (Commercial License) Copyright 2024 Fonticons, Inc. --><path d="M16 496V16H208V168v8h8H368V496H16zM224 22.6L361.4 160H224V22.6zM224 0H16 0V16 496v16H16 368h16V496 160L224 0zM168 224c-4.4 0-8 3.6-8 8v24V416v24c0 4.4 3.6 8 8 8h48c4.4 0 8-3.6 8-8V416 256 232c0-4.4-3.6-8-8-8H168zm8 32V240h32v16V416v16H176V416 256zm88 32c-4.4 0-8 3.6-8 8v24 96 24c0 4.4 3.6 8 8 8h48c4.4 0 8-3.6 8-8V416 320 296c0-4.4-3.6-8-8-8H264zm8 32V304h32v16 96 16H272V416 320zM72 352c-4.4 0-8 3.6-8 8v24 32 24c0 4.4 3.6 8 8 8h48c4.4 0 8-3.6 8-8V416 384 360c0-4.4-3.6-8-8-8H72zm8 32V368h32v16 32 16H80V416 384z"/></svg>
